X: 2917
T: Barrack Hill
R: slide
M: 12/8
K: Adorian
|:e2 A ABd e2 d B2 d|e2 A ABA G2 A B2 d|
e2A ABd e2 d B2 e|d2 B GAB ABA ABd:|
|:e2 e efg a2 f gfe|d2 B d2 e d2 B d3|
e2 e efg a2 f gfe|d2 B GAB ABA ABd:|

